X:1
T:Change me, O heav'ns - Wilbye
T:#
%%score 1 2 3
L:1/8
Q:1/4=120
M:4/4
K:Bb
V:1 treble nm="Soprano" snm="S"
V:2 treble nm="Alto" snm="A"
V:3 treble-8 nm="Tenor" snm="T"
V:1
"^Change me, O heavens""^John Wilbye\n (1574-1638)" z8 | z8 | z8 | z8 | z4!mf! F4- | %5
w: ||||Change|
[M:4/4] F4 d4- | d4 c4 | B8 | z4!p! f4 | A6 B2 | c8 | z4 c4 | =E6 F2 | G6 G2 | G2 e2 d2 d2 | c8 | %16
w: * me,|* O|heav'ns,|change|me, O|heav'ns,|change|me, O|heav'ns in-|to the ru- by|stone,|
 z8 | z8 | z4!mf! G2 B2- | B2 (AG) A2 (GA) | B3 _A G2 G2 | F4!p! F2 =A2- | A2 (GF) G2 (FE) | %23
w: ||That on|* my * love's fair *|locks doth hang in|gold, that on|* my * love's fair *|
 F4 E2 e2- | e2 (dc) d2 (cB) | c2 B2 B2 A2 | B6!f! B2 | c2 _d2 B2 c2 | A2 B2 B2 A2 | B8 | %30
w: locks, that on|* my * love's fair *|locks doth hang in|gold: Yet|leave me speech, to|her to make my|moan,|
!p! B2 _A4 _G2 | F2 E2 D4- | D2 _G2 F2 F2 | E6 F2 | _G4 G4 | F6 _G2 | _A4 A4 | _G2 _A2 B4- | %38
w: Yet leave me|speech, to her|* to make my|moan, to|make my|moan, to|make my|moan, to her|
 B2 (_A_G) F2 E2 | D8 | z8 | z8 | z8 | z8 | z8 | z8 | z8 | z8 | z8 | z8 | z2"^cresc." c2 _d2 c2 | %51
w: * to * make my|moan;|||||||||||And give me|
 B2 _A2 _G2 F2 | E2 (_D4 C2) | _D2!f! F2 D2 C2 | B,2 z2 z4 | z8 | z4 F4- | F4 _d2 c2 | %58
w: eyes, her beau- ties|to be\- *|hold, and give me|eyes,||and|* give me|
 B2 _A2 _G4- | G4 F4 | E4 E4 | F8 | z2!mf! F2 B3 _A | _G3 F E2 E2 | _A3 _G F3 E | _D2 D2 _G2 G2 | %66
w: eyes, her beau\-|* ties|to be-|hold.|Or, if you|will not make, or,|if you will not|make my flesh a|
 F4 z4 | z8 | z8 | z8 | z4"^cresc." F4 | _G2 _A2 B2 E2 | D4 E4 | _G4 F4 | E8 | z4 z2!f! _d2 | %76
w: stone,||||Make|her hard heart seem|flesh, that|now seems|none,|make|
 c2 _d2 e2 c2 | B4 _d4 | c4 B4 | A2 B2 c2 c2 | _d2 e2 f2 B2 | %81
w: her hard heart seem|flesh, that|now seems|none, make her, make|her hard heart seem|
 A2!pp![Q:1/4=118] B2[Q:1/4=115] c2[Q:1/4=113] (B2- | %82
w: flesh, that now seems|
[Q:1/4=110] B2[Q:1/4=108] A[Q:1/4=107]G[Q:1/4=104] A4) |[Q:1/4=102] B16 |] %84
w: |none.|
V:2
 z8 | z8 |!mf! C4 A4- | A4 G4 | F2 G2 A2 B2 |[M:4/4] c4 (B4- | B2 AG A4) | B4!p! D4 | F8- | F8 | %10
w: ||Change me,|* O|heav'ns, in- to the|ru- by||stone, change|me,||
 z4 c4 | =E6 F2 | G4 z4 | z4 G4 | =B,2 C2 C2 B,2 | C2 A2 G2 G2 | F8- | F4!mf! C2 F2- | %18
w: change|me, O|heav'ns,|change|me, O heav'ns, in-|to the ru- by|stone,|* That on|
 F2 (=ED) E2 (DE) | F8- | F4 B,2 _E2- | E2 (DC)!p! D2 (CD) | E6 B,2- | B,2 (B4 AG | A4) F4 | F8- | %26
w: * my * love's fair *|locks,|* that on|* my * love's fair *|locks doth|* hang * *|* in|gold:|
 F6!f! F2 | _A2 A2 _G2 G2 | F2 F2 E2 E2 | F8 |!p! _G2 F4 E2 | D2 _G2 F4- | F2 E2 E2 D2 | E4 E4 | %34
w: * Yet|leave me speech, to|her to make my|moan,|Yet leave me|speech, to her|* to make my|moan, to|
 _D6 E2 | F4 F4 | E6 F2 | _G6 (FE) | =D6 _G2 | F8 | F2 E4 _D2 | C2 B,2 A,4- | A,2 _D2 C2 C2 | %43
w: make my|moan, to|make my|moan, to *|make my|moan,|yet leave me|speech, to her|* to make my|
 B,6 C2 | _D4 D4 | C6 _D2 | E4 E4 | _D2 E2 F4- | F2 (E_D) C2 B,2 | A,2"^cresc." F2 A2 G2 | %50
w: moan, to|make my|moan, yet|leave me|speech, to her|* to * make my|moan; And give me|
 F2 E2 _D2 (EF) | _G2 _D2 E2 D2 | C2 F2 E2 E2 | _D4 z4 | z2!f! F2 B2 _A2 | _G2 F2 E2 _D2 | %56
w: eyes, her beau- ties *|to be- hold, her|beau- ties to be-|hold,|and give me|eyes, her beau- ties|
 C2 (B,4 A,2) | B,2 _A,2 _G,2 A,2 | B,4 B,4 | _A,8- | A,8 | _A,8 | z8 | z8 | z8 | %65
w: to be *|hold, her beau- ties|to be-|hold.||||||
 z2!mf! _D2 E2 D2 | C2!p! F2 E3 F | _D3 E C2 B,2 | (B,2 =A,=G,) A,4 | B,6"^cresc." _G2 | %70
w: my flesh a|stone, or, if you|will not make my|flesh * * a|stone, Make|
 F2 _G2 _A2 F2 | E4 _G4 | F4 E4 | _D2 E2 F2 F2 | _G2 _A2 B2 (AG) | F8- | F4!f! C4 | _D2 E2 F2 B,2 | %78
w: her hard heart seem|flesh, that|now seems|none, make her, make|her hard heart seem *|flesh,|* make|her hard heart seem|
 A,4 B,4 | _D4 C4 | B,4!pp! F4- | F4 _G4 | F8 | F16 |] %84
w: flesh that|now seems|none, that|* now|seems|none.|
V:3
 z8 |!mf! f8 | A6 B2 | c8- | c8 |[M:4/4][K:treble-8] c4 f4 | f8- | f4!p! B4 | D6 E2 | F8 | z8 | %11
w: |Change|me, O|heav'ns,||* change|me,|* change|me, O|heav'ns,||
 z4 c4 | G4 _A4 | G6 e2 | d2 c2 d4 | (=e2 f4 e2) | f2!mf! d2 d2 (cB) | c6 c2 | B4 B4 | d2 d2 c4 | %20
w: change|me, O|heav'ns, in-|to the ru-|by * *|stone, That on my *|love's fair|locks doth|hang in gold,|
 F2 B4 (AG) | A4!p! F4 | c4 B4 | B4 G2 c2- | c2 (BA) B2 (AG) | A2 _d2 c2 c2 | B6!f! _d2 | %27
w: that on my *|love's fair|locks doth|hang, that on|* my * love's fair *|locks doth hang in|gold: Yet|
 e2 f2 _d2 e2 | c2 B2 c2 c2 | =d8 |!p! B8 | B8 | B8 | _c4 c4 | B6 _c2 | _d4 d4 | _c6 _d2 | %37
w: leave me speech, to|her to make my|moan,|Yet|leave|me|speech, to|her to|make my|moan, to|
 e6 (_d_c) | B6 e2 | B8 | _d2 c4 B2 | A2 _d2 c4- | c2 B2 B2 A2 | B4 B4 | _A6 B2 | c4 c4 | B6 c2 | %47
w: make my *|make my|moan,|yet leave me|speech, to her|* to make my|moan, to|make my|moan, to|make my|
 _d6 (cB) | =A6 _d2 | c6"^cresc." c2 | _d2 c2 B2 _A2 | _G2 F2 E2 FG | _A4 A4 | _D2!f! _d2 f2 e2 | %54
w: moan, to *|make my|moan; And|give me eyes, her|beau- ties to * *|* be-|hold, and give me|
 _d2 c2 B2 (cd) | e2 B2 c2 B2 | A2 _d2 c2 c2 | _d2 c2 B2 _A2 | _G2 F2 E2 _D2 | E4 _D4- | D4 C4 | %61
w: eyes, and give me *|eyes, her beau- ties|to be- hold, and|give me eyes, her|beau- ties to be-|hold, to|* be-|
 _D2!mf! _d2 f3 e | _d3 c B2 B2 | e3 _d c3 B | _A2 A2 _d3 c | B2 B2 c2 B2 | =A2!p! _d2 c3 d | %67
w: hold. Or, if you|will not make, or,|if you will not|make my flesh a|stone, my flesh a|stone, or, if you|
 B3 c A2 _d2 | c4 c4 | B8- | B8 | B8 | z2"^cresc." F2 _G2 _A2 | B2 E2 =D4 | z4!f! E4 | %75
w: will not make my|flesh a|stone,|||Make her hard|heart seem flesh,|make|
 F2 G2 _A2 B2 | c6 F2 | F4 F4 | F2 c2 _d2 e2 | f2 B2 A2 A2 | B2 c2 _d2!pp! d2 | c2 _d2 e2 d2 | %82
w: her hard heart seem|flesh that|now seems|none, make her hard|heart seem flesh, that|now seems none, make|her hard heart seem|
 c2 B2 c2 c2 | =d16 |] %84
w: flesh, that now seems|none.|

